X:1
T:Ich glaub und darum rede ich
T:Benedictus Ducis
T:Source : Trium vocum cantiones---Nürnberg---J.Petreius---1541. Editor : André Vierendeels (30/08/15).
T:Ich glaub und darum rede ich
T:ps 116
C:Benedictus Ducis
%%score [ 1 [ 2 3 ] ]
L:1/8
Q:1/4=80
M:2/2
K:C
V:1 treble nm="Discantus" snm="D"
V:2 treble-8 nm="Tenor 1" snm="T 1"
V:3 treble-8 nm="Tenor 2" snm="T 2"
V:1
 z8 | G4 A2 B2 | c3 B A2 G2 | A2 B2 c2 BA | G4 z4 | F4 E2 A2 | G2 E3 D E2 | F2 G3 A B2 | G2 c4 BA | %9
w: |Ich glaub und|dar- * * rumb|red' * * * *|ich,|red' ich de-|mut _ _ _|des creutz * *|mich hat * *|
w: |In mei- nem|za- * * gten|ich auch _ _ _|sprich|ich auch sprich|ein- je- * *|der die _ _|lu- * * *|
 B4 A2 G2- | GD F2 E4 | D4 z4 | z2 D2 E2 F2 | G4 A4 | G4 F2 E2- | E2 D2 E4 | z2 E2 E2 E2 | %17
w: |* * * ver-|sert,|was sol ich|wi- der|gel- * *|* ten schir,|der Her- ren|
w: |* * * gen|macht||||||
 D2 G4 F2 | G2 A4 B2 | E2 A2 G2 c2- | c2 B2 c2 d2 | G4 c4 | B8- | B8 :| %24
w: für all wol-|* that an|mir den * kelch|* * des heyls|ich ne-|me.||
w: |||||||
V:2
 G4 A2 B2 | c3 B A2 G2 | A2 c3 d e2 | f2 e4 d2 | e2 E2 F2 E2 | D4 C2 F2 | E2 A2 G2 g2 | f2 e4 d2 | %8
w: Ich glaub und|da- * * rumb|red' _ _ _|_ _ _|ich, und da- rumb|red' ich de-|mut * des creutz|mich hat *|
w: In mei- nem|za- * * gten|ich auch- * *||sprich, ich auch sprich|ein- je- *|der die * lu-||
 e6 dc | d4 c4 | B2 A3 G c2- | c2 B2 c2 A2 | G2 B2 c2 d2 | B4 A2 c2- | c2 B2 A2 G2 | F4 E4 | %16
w: ver- * *|||* * sert, was|sol ich wi- der|gel- ten schir|_ _ _ _||
w: |||* * macht. *|||||
 z2 C2 C2 C2 | G3 F E2 D2 | C2 F4 G2 | A2 F2 E2 A2 | G4 z2 d2 | e2 g4 f2 | g4 e4 | d8 :| %24
w: den Her- ren|für * * all|wol- that an|mir _ _ den|kelch des|heyls ich ne-||me.|
w: ||||||||
V:3
 z8 | z8 | z8 | z2 G2 A2 B2 | c3 B A2 G2 | A2 B2 c4- | c4 z2 c2 | d2 c2 c2 B2 | c2 A2 G4- | G4 z4 | %10
w: |||Ich glaub und|da- * * rumb|red' _ ich|* de-|mut des creutz mich|hat ver- sert,||
w: |||In mei- nem|za- * * gten,|ein- je- der|* die|lu- * gen *|* * macht||
 z8 | G4 E2 F2 | G3 F E2 D2 | E4 F4 | E4 z4 | z8 | z2 G2 G2 A2 | B4 c2 d2 | e2 c2 d4 | c4 z2 c2 | %20
w: |was sol ich|wi- * * der|gel- ten|schir,||den Her- ren|für all wol-|* that an|mir, den|
w: ||||||||||
 d4 c2 B2 | c4 A4 | G8- | G8 :| %24
w: kelch des heyls|ich ne-|me.||
w: ||||

